resources/icons/16px/css-style.svg

<svg width="16" height="16" viewBox="0 0 16 16" fill="none" xmlns="http://www.w3.org/2000/svg">
    <path fill-rule="evenodd" clip-rule="evenodd"
        d="M2 1C2 0.447715 2.44772 0 3 0H10C11.6667 1.66666 13.3333 3.33333 15 5V15C15 15.5523 14.5523 16 14 16H11.4821C11.8096 15.5683 12 15.0391 12 14.5C12 14.3224 11.9809 14.1558 11.9466 14H13V6C11.3333 6 10.6667 6 9 6V2H4V10.5136C3.81307 10.6577 3.64749 10.8268 3.50751 11.0138C3.42503 10.8959 3.33019 10.7824 3.22131 10.6757C2.85889 10.3206 2.43008 10.1267 2 10.0459V1Z"
        fill="#5F6B7C" />
    <path d="M7.491 15.9882L7.49982 16H7.48209L7.491 15.9882Z" fill="#5F6B7C" />
    <path
        d="M1.5 11C1.09398 11 0.733452 11.151 0.465087 11.4256C0.203011 11.6938 0.0549989 12.0519 0.00433034 12.4343L0 12.467V12.5V14.5C0 15.2593 0.655001 16 1.5 16C2.32843 16 3 15.3284 3 14.5C3 14.2239 2.77614 14 2.5 14C2.22386 14 2 14.2239 2 14.5C2 14.7761 1.77614 15 1.5 15C1.24043 15 1 14.7407 1 14.5V12.5357C1.03155 12.3352 1.10404 12.2026 1.1803 12.1245C1.25399 12.0491 1.35373 12 1.5 12C1.67304 12 1.76396 12.0478 1.82145 12.1042C1.88683 12.1682 1.96699 12.3011 2.0049 12.5699C2.04348 12.8433 2.29642 13.0337 2.56986 12.9951C2.84329 12.9565 3.03368 12.7036 2.9951 12.4301C2.93784 12.0244 2.79414 11.6573 2.52138 11.3899C2.24074 11.1149 1.87924 11 1.5 11Z"
        fill="#5F6B7C" />
    <path
        d="M4 12.5C4 11.7407 4.655 11 5.5 11C6.32843 11 7 11.6716 7 12.5C7 12.7761 6.77614 13 6.5 13C6.22386 13 6 12.7761 6 12.5C6 12.2239 5.77614 12 5.5 12C5.24043 12 5 12.2593 5 12.5C5 12.5921 5.02845 12.654 5.12859 12.7357C5.25471 12.8387 5.43821 12.9245 5.70432 13.0436L5.73056 13.0554C5.9615 13.1587 6.26391 13.2939 6.50359 13.4894C6.77845 13.7137 7 14.0398 7 14.5C7 15.2593 6.345 16 5.5 16C4.67157 16 4 15.3284 4 14.5C4 14.2239 4.22386 14 4.5 14C4.77614 14 5 14.2239 5 14.5C5 14.7761 5.22386 15 5.5 15C5.75957 15 6 14.7407 6 14.5C6 14.4079 5.97155 14.346 5.87141 14.2642C5.74529 14.1613 5.56179 14.0755 5.29569 13.9564L5.26944 13.9446C5.0385 13.8413 4.7361 13.7061 4.49641 13.5106C4.22155 13.2863 4 12.9602 4 12.5Z"
        fill="#5F6B7C" />
    <path
        d="M9.5 11C8.655 11 8 11.7407 8 12.5C8 12.9602 8.22155 13.2863 8.49641 13.5106C8.7361 13.7061 9.0385 13.8413 9.26944 13.9446L9.29569 13.9564C9.56179 14.0755 9.74529 14.1613 9.87141 14.2642C9.97155 14.346 10 14.4079 10 14.5C10 14.7407 9.75957 15 9.5 15C9.22386 15 9 14.7761 9 14.5C9 14.2239 8.77614 14 8.5 14C8.22386 14 8 14.2239 8 14.5C8 15.3284 8.67157 16 9.5 16C10.345 16 11 15.2593 11 14.5C11 14.0398 10.7784 13.7137 10.5036 13.4894C10.2639 13.2939 9.9615 13.1587 9.73056 13.0554L9.70432 13.0436C9.43821 12.9245 9.25471 12.8387 9.12859 12.7357C9.02845 12.654 9 12.5921 9 12.5C9 12.2593 9.24043 12 9.5 12C9.77614 12 10 12.2239 10 12.5C10 12.7761 10.2239 13 10.5 13C10.7761 13 11 12.7761 11 12.5C11 11.6716 10.3284 11 9.5 11Z"
        fill="#5F6B7C" />
</svg>

<svg xmlns="http://www.w3.org/2000/svg" viewBox="0 0 16 16">
  <path d="M2 1a1 1 0 0 1 1-1h7l5 5v10a1 1 0 0 1-1 1h-2.518A2.5 2.5 0 0 0 12 14.5q-.002-.267-.053-.5H13V6H9V2H4v8.514a2.6 2.6 0 0 0-.492.5A2.34 2.34 0 0 0 2 10.046zM7.491 15.988 7.5 16h-.018zM1.5 11a1.42 1.42 0 0 0-1.035.426c-.262.268-.41.626-.46 1.008L0 12.467V14.5c0 .76.655 1.5 1.5 1.5A1.5 1.5 0 0 0 3 14.5a.5.5 0 0 0-1 0 .5.5 0 0 1-.5.5c-.26 0-.5-.26-.5-.5v-1.964a.75.75 0 0 1 .18-.412A.42.42 0 0 1 1.5 12c.173 0 .264.048.321.104.066.064.146.197.184.466a.5.5 0 1 0 .99-.14c-.057-.406-.2-.773-.474-1.04-.28-.275-.642-.39-1.021-.39"/>
  <path d="M4 12.5c0-.76.655-1.5 1.5-1.5A1.5 1.5 0 0 1 7 12.5a.5.5 0 0 1-1 0 .5.5 0 0 0-.5-.5c-.26 0-.5.26-.5.5 0 .092.028.154.129.236.126.103.31.188.575.308l.027.011c.23.104.533.239.773.434.274.225.496.55.496 1.011 0 .76-.655 1.5-1.5 1.5A1.5 1.5 0 0 1 4 14.5a.5.5 0 0 1 1 0 .5.5 0 0 0 .5.5c.26 0 .5-.26.5-.5 0-.092-.028-.154-.129-.236-.126-.103-.31-.188-.575-.308l-.027-.011c-.23-.104-.533-.239-.773-.434C4.222 13.286 4 12.96 4 12.5M9.5 11c-.845 0-1.5.74-1.5 1.5 0 .46.222.786.496 1.01.24.196.543.331.773.435l.027.011c.266.12.45.205.575.308.1.082.129.144.129.236 0 .24-.24.5-.5.5a.5.5 0 0 1-.5-.5.5.5 0 0 0-1 0A1.5 1.5 0 0 0 9.5 16c.845 0 1.5-.74 1.5-1.5 0-.46-.222-.786-.496-1.01-.24-.196-.543-.331-.773-.435l-.027-.011c-.266-.12-.45-.205-.575-.308-.1-.082-.129-.144-.129-.236 0-.24.24-.5.5-.5a.5.5 0 0 1 .5.5.5.5 0 0 0 1 0A1.5 1.5 0 0 0 9.5 11"/>
</svg>
